X:238
T: ES GING EIN MAEDCHEN GRASEN
N: Z0237
O: Europa, Mitteleuropa, Deutschland, Herzogtum Berg
R: Jaeger - Lied (Maedchen will als Knabe geboren sein, um Jaeger werden
M: 4/4
L: 1/8
K: G
D2 | G3ABcd2 | e2c2z2
d2 | e2f2g2fe | d2z4
dd | g2d2dcBc | e2d2z2
dc | BBBBcBcA | B2c2d2
ef | g2dcB3A | G2z4

@@@ Tune index: 9996
